X:34
T:The Jay Bird
S:American Veteran Fifer #34
C:Arr. by A.F.Hopkins, Fife Major National Association of Civil War Mus.
M:2/4
L:1/16
Q:1/8=180
K:D 
%%MIDI program 72
%%MIDI transpose 8
%%MIDI ratio 3 1
|: G2B2 BGBG | F2A2 AFAF | G2e2e2d2 | cdec A4 |
G2B2 BGBG | F2A2 AFAF | dcde dBAG | F2D2D4 :|
|: f2d2f2d2 | fdfg a4 | ecAc ecAc | ecef g4 |
f2d2f2d2 | fdfg a4 |[1 efec dedB | c2A2 A2Ad :|[2 dcde dBAG | F2D2 D4 |


